polaris-icons/icons/new-icons/GamesConsoleMajor.svg

<svg width="20" height="20" viewBox="0 0 20 20" fill="none" xmlns="http://www.w3.org/2000/svg">
<path d="M13 8.25C13 8.80228 12.5523 9.25 12 9.25C11.4477 9.25 11 8.80228 11 8.25C11 7.69772 11.4477 7.25 12 7.25C12.5523 7.25 13 7.69772 13 8.25Z" fill="#4A4A4A"/>
<path d="M13.75 11.5C14.3023 11.5 14.75 11.0523 14.75 10.5C14.75 9.94772 14.3023 9.5 13.75 9.5C13.1977 9.5 12.75 9.94772 12.75 10.5C12.75 11.0523 13.1977 11.5 13.75 11.5Z" fill="#4A4A4A"/>
<path d="M7.25 7.25C7.66421 7.25 8 7.58579 8 8V8.5H8.5C8.91421 8.5 9.25 8.83579 9.25 9.25C9.25 9.66421 8.91421 10 8.5 10H8V10.5C8 10.9142 7.66421 11.25 7.25 11.25C6.83579 11.25 6.5 10.9142 6.5 10.5V10H6C5.58579 10 5.25 9.66421 5.25 9.25C5.25 8.83579 5.58579 8.5 6 8.5H6.5V8C6.5 7.58579 6.83579 7.25 7.25 7.25Z" fill="#4A4A4A"/>
<path fill-rule="evenodd" clip-rule="evenodd" d="M12 3.75C11.3096 3.75 10.75 4.30964 10.75 5H12.25C14.8734 5 17 7.12665 17 9.75V13.0931C17 14.6985 15.6985 16 14.0931 16C12.8169 16 11.69 15.1677 11.3147 13.948L10.9832 12.8706C10.9611 12.7989 10.8949 12.75 10.8199 12.75H9.18007C9.10509 12.75 9.03888 12.7989 9.01683 12.8706L8.68533 13.948C8.31003 15.1677 7.1831 16 5.90694 16C4.30148 16 3 14.6985 3 13.0931V9.75C3 7.12665 5.12665 5 7.75 5H9.25C9.25 3.48122 10.4812 2.25 12 2.25V3.75ZM7.75 6.5C5.95507 6.5 4.5 7.95507 4.5 9.75V13.0931C4.5 13.8701 5.12991 14.5 5.90694 14.5C6.52459 14.5 7.07002 14.0972 7.25166 13.5068L7.58317 12.4294C7.79887 11.7284 8.44659 11.25 9.18007 11.25H10.8199C11.5534 11.25 12.2011 11.7284 12.4168 12.4294L12.7483 13.5068C12.93 14.0972 13.4754 14.5 14.0931 14.5C14.8701 14.5 15.5 13.8701 15.5 13.0931V9.75C15.5 7.95507 14.0449 6.5 12.25 6.5H7.75Z" fill="#4A4A4A"/>
</svg>

<svg viewBox="0 0 20 20" xmlns="http://www.w3.org/2000/svg"><path d="M13 8.25a1 1 0 1 1-2 0 1 1 0 0 1 2 0Z" fill="#5C5F62"/><path d="M13.75 11.5a1 1 0 1 0 0-2 1 1 0 0 0 0 2Z" fill="#5C5F62"/><path d="M7.25 7.25a.75.75 0 0 1 .75.75v.5h.5a.75.75 0 0 1 0 1.5h-.5v.5a.75.75 0 0 1-1.5 0v-.5h-.5a.75.75 0 0 1 0-1.5h.5v-.5a.75.75 0 0 1 .75-.75Z" fill="#5C5F62"/><path fill-rule="evenodd" d="M12 3.75c-.69 0-1.25.56-1.25 1.25h1.5a4.75 4.75 0 0 1 4.75 4.75v3.343a2.907 2.907 0 0 1-5.685.855l-.332-1.077a.17.17 0 0 0-.163-.121h-1.64a.17.17 0 0 0-.163.12l-.332 1.078a2.907 2.907 0 0 1-5.685-.855v-3.343a4.75 4.75 0 0 1 4.75-4.75h1.5a2.75 2.75 0 0 1 2.75-2.75v1.5Zm-4.25 2.75a3.25 3.25 0 0 0-3.25 3.25v3.343a1.407 1.407 0 0 0 2.752.414l.331-1.078a1.67 1.67 0 0 1 1.597-1.179h1.64a1.67 1.67 0 0 1 1.597 1.18l.331 1.077a1.407 1.407 0 0 0 2.752-.414v-3.343a3.25 3.25 0 0 0-3.25-3.25h-4.5Z" fill="#5C5F62"/></svg>
